cartflows/admin-core/assets/images/plugins/suretriggers/trusted-brands/Fluent_CRM.svg

<svg width="133" height="24" viewBox="0 0 133 24" fill="none" xmlns="http://www.w3.org/2000/svg">
<path fill-rule="evenodd" clip-rule="evenodd" d="M24.5 2.4C24.5 1.07544 23.4246 0 22.1 0H2.9C1.57544 0 0.5 1.07544 0.5 2.4V21.6C0.5 22.9246 1.57544 24 2.9 24H22.1C23.4246 24 24.5 22.9246 24.5 21.6V2.4Z" fill="#4B5563"/>
<path fill-rule="evenodd" clip-rule="evenodd" d="M20.5775 5.69141C20.5775 5.69141 10.2249 8.46533 6.0957 9.57181C5.1101 9.83589 4.42474 10.729 4.42474 11.7494C4.42474 12.5251 4.42474 13.2685 4.42474 13.2685C4.42474 13.2685 12.7411 11.0402 17.4392 9.78133C19.2903 9.28533 20.5775 7.60781 20.5775 5.69141Z" fill="white"/>
<path fill-rule="evenodd" clip-rule="evenodd" d="M14.3779 12.3945C14.3779 12.3945 8.93052 13.8542 6.09564 14.6138C5.11004 14.8779 4.42468 15.771 4.42468 16.7914C4.42468 17.5671 4.42468 18.3105 4.42468 18.3105C4.42468 18.3105 8.32236 17.2662 11.2395 16.4845C13.0907 15.9885 14.3779 14.311 14.3779 12.3946V12.3945Z" fill="white"/>
<path d="M39.4345 4.52453C39.7163 4.49635 39.9313 4.53507 40.0793 4.64078C40.2272 4.74649 40.3012 4.91209 40.3012 5.1376C40.3012 5.57451 40.0616 5.81418 39.5824 5.85645L38.9694 5.89872C38.166 5.95507 37.5669 6.19821 37.1723 6.62811C36.7776 7.05795 36.5451 7.70281 36.4746 8.56256L36.4323 9.15453H38.7368C38.9623 9.15453 39.135 9.21443 39.2548 9.33423C39.3746 9.45402 39.4345 9.61262 39.4345 9.80994C39.4345 10.0214 39.371 10.1904 39.2441 10.3173C39.1173 10.4442 38.9341 10.5076 38.6945 10.5076H36.3266L35.6712 18.7317C35.6571 18.9994 35.5655 19.2038 35.3964 19.3448C35.2273 19.4857 35.0229 19.5562 34.7833 19.5562C34.5437 19.5562 34.3428 19.4857 34.1808 19.3448C34.0187 19.2038 33.9447 18.9994 33.9588 18.7317L34.6141 10.5076H33.1977C32.9722 10.5076 32.7995 10.4477 32.6797 10.3279C32.5599 10.2081 32.5 10.0495 32.5 9.85221C32.5 9.6408 32.5634 9.47165 32.6902 9.34478C32.8171 9.21797 33.0074 9.15453 33.2611 9.15453H34.7198L34.741 8.77397C34.8396 7.40679 35.2414 6.38144 35.9461 5.69785C36.6508 5.01426 37.6726 4.63023 39.0116 4.54562L39.4345 4.52453Z" fill="#4B5563"/>
<path d="M41.5283 19.5554C41.2887 19.5554 41.0914 19.4849 40.9364 19.344C40.7813 19.203 40.7108 18.9916 40.725 18.7096L41.8031 5.22136C41.8172 4.95351 41.9159 4.75272 42.0992 4.61883C42.2824 4.48488 42.4938 4.41797 42.7334 4.41797C42.973 4.41797 43.1668 4.48488 43.3148 4.61883C43.4628 4.75272 43.5297 4.95351 43.5156 5.22136L42.4374 18.7096C42.4233 18.9916 42.3282 19.203 42.152 19.344C41.9758 19.4849 41.768 19.5554 41.5283 19.5554Z" fill="#4B5563"/>
<path d="M53.8106 8.94141C54.0643 8.94141 54.2651 9.01539 54.4131 9.16337C54.5611 9.31135 54.621 9.51929 54.5928 9.78706L53.874 18.7722C53.8599 19.0118 53.7648 19.2021 53.5886 19.3431C53.4124 19.484 53.2045 19.5545 52.9649 19.5545C52.7253 19.5545 52.535 19.4875 52.3941 19.3536C52.2532 19.2198 52.1897 19.033 52.2038 18.7934L52.2884 17.7786C51.9361 18.3565 51.4639 18.8039 50.8719 19.1211C50.2799 19.4382 49.6175 19.5968 48.8846 19.5968C47.743 19.5968 46.8761 19.2973 46.2842 18.6982C45.6922 18.0993 45.3962 17.2219 45.3962 16.0661C45.3962 15.8124 45.4032 15.6221 45.4173 15.4953L45.8613 9.78706C45.8895 9.51929 45.9917 9.31135 46.1679 9.16337C46.3441 9.01539 46.5519 8.94141 46.7916 8.94141C47.0453 8.94141 47.2461 9.01539 47.3941 9.16337C47.5421 9.31135 47.602 9.51929 47.5738 9.78706L47.1298 15.3896C47.1157 15.4882 47.1087 15.6362 47.1087 15.8335C47.1087 17.3839 47.8487 18.1592 49.3286 18.1592C50.2447 18.1592 50.9776 17.8772 51.5273 17.3135C52.0769 16.7497 52.3871 15.9675 52.4575 14.9668L52.8803 9.78706C52.9085 9.51929 53.0107 9.31135 53.1869 9.16337C53.3631 9.01539 53.571 8.94141 53.8106 8.94141Z" fill="#4B5563"/>
<path d="M58.314 14.5682V14.6529C58.314 15.7804 58.5924 16.6542 59.1491 17.2744C59.7058 17.8945 60.5127 18.2046 61.5698 18.2046C62.6832 18.2046 63.6628 17.8945 64.5085 17.2744C64.6495 17.1757 64.7904 17.1264 64.9313 17.1264C65.1005 17.1264 65.2379 17.1898 65.3436 17.3167C65.4493 17.4435 65.5021 17.5915 65.5021 17.7606C65.5021 18.0144 65.3894 18.2469 65.1639 18.4583C64.7833 18.7966 64.2513 19.0715 63.5677 19.2829C62.8841 19.4943 62.19 19.6 61.4853 19.6C59.9912 19.6 58.8038 19.149 57.9229 18.2469C57.042 17.3449 56.6015 16.1328 56.6015 14.6105C56.6015 13.483 56.8094 12.4894 57.2252 11.6296C57.641 10.7698 58.233 10.1003 59.0011 9.62112C59.7692 9.14194 60.6607 8.90234 61.6755 8.90234C63.0568 8.90234 64.1138 9.31455 64.8468 10.1391C65.5797 10.9636 65.9461 12.1582 65.9461 13.7226C65.9461 13.9904 65.8757 14.1983 65.7347 14.3463C65.5937 14.4943 65.4035 14.5682 65.1639 14.5682H58.314ZM61.7389 10.2343C60.7946 10.2343 60.0406 10.5126 59.4768 11.0693C58.913 11.6261 58.5536 12.4259 58.3986 13.4689H64.4028C64.4451 12.4118 64.2301 11.6085 63.7579 11.0588C63.2858 10.509 62.6128 10.2343 61.7389 10.2343Z" fill="#4B5563"/>
<path d="M73.8108 8.90234C74.9666 8.90234 75.8475 9.20538 76.4536 9.81144C77.0596 10.4175 77.3626 11.2983 77.3626 12.4541C77.3626 12.7078 77.3556 12.8981 77.3415 13.0249L76.8975 18.712C76.8693 18.9939 76.7707 19.2053 76.6016 19.3463C76.4324 19.4872 76.228 19.5577 75.9884 19.5577C75.7207 19.5577 75.5128 19.4872 75.3647 19.3463C75.2168 19.2053 75.1569 18.9939 75.185 18.712L75.629 13.1306C75.6431 13.032 75.6502 12.884 75.6502 12.6867C75.6502 11.1222 74.8961 10.34 73.388 10.34C72.4296 10.34 71.6685 10.6254 71.1047 11.1962C70.5409 11.767 70.2168 12.5527 70.1322 13.5534L69.7094 18.712C69.6953 18.9939 69.6037 19.2053 69.4345 19.3463C69.2654 19.4872 69.054 19.5577 68.8003 19.5577C68.5466 19.5577 68.3457 19.4872 68.1978 19.3463C68.0498 19.2053 67.9828 18.9939 67.9969 18.712L68.7368 9.748C68.751 9.49432 68.8461 9.29699 69.0223 9.15603C69.1985 9.01506 69.4063 8.94461 69.6459 8.94461C69.8856 8.94461 70.0758 9.01506 70.2168 9.15603C70.3577 9.29699 70.4211 9.48724 70.4071 9.72683L70.3225 10.7416C70.6748 10.1637 71.1541 9.71274 71.7601 9.38861C72.3662 9.06441 73.0497 8.90234 73.8108 8.90234Z" fill="#4B5563"/>
<path d="M82.542 15.73C82.5279 15.8287 82.5209 15.9696 82.5209 16.1528C82.5209 16.8294 82.6759 17.3438 82.986 17.6961C83.296 18.0485 83.7329 18.2247 84.2967 18.2247C84.48 18.2247 84.6561 18.2141 84.8253 18.193C84.9944 18.1718 85.1213 18.1613 85.2058 18.1613C85.3468 18.1613 85.463 18.2176 85.5547 18.3304C85.6463 18.4431 85.6921 18.5982 85.6921 18.7955C85.6921 19.0915 85.5688 19.2994 85.3221 19.4192C85.0755 19.539 84.642 19.5989 84.0219 19.5989C83.0071 19.5989 82.2178 19.31 81.6541 18.7321C81.0903 18.1542 80.8084 17.3367 80.8084 16.2797C80.8084 16.0823 80.8154 15.9273 80.8295 15.8146L81.2312 10.508H79.8359C79.6104 10.508 79.4377 10.4481 79.3179 10.3283C79.1981 10.2085 79.1382 10.05 79.1382 9.85263C79.1382 9.62713 79.2052 9.45445 79.3391 9.33465C79.4729 9.21485 79.6597 9.15495 79.8993 9.15495H81.3369L81.5272 6.74479C81.5554 6.5052 81.6505 6.31142 81.8126 6.16344C81.9747 6.01539 82.1826 5.94141 82.4363 5.94141C82.704 5.94141 82.912 6.01893 83.06 6.17399C83.2079 6.32905 83.2678 6.53338 83.2397 6.78706L83.0494 9.15495H85.375C85.5864 9.15495 85.7555 9.21485 85.8823 9.33465C86.0092 9.45445 86.0726 9.61304 86.0726 9.81037C86.0726 10.0359 86.0092 10.2085 85.8823 10.3283C85.7555 10.4481 85.5723 10.508 85.3327 10.508H82.9437L82.542 15.73Z" fill="#4B5563"/>
<path d="M95.3953 19.6409C93.8449 19.6409 92.4953 19.3237 91.3466 18.6895C90.1979 18.0552 89.317 17.1602 88.7039 16.0045C88.0908 14.8488 87.7843 13.5098 87.7843 11.9876C87.7843 10.4654 88.0908 9.12998 88.7039 7.98122C89.317 6.83254 90.1979 5.94107 91.3466 5.30683C92.4953 4.67259 93.8449 4.35547 95.3953 4.35547C96.3678 4.35547 97.3085 4.50344 98.2176 4.79947C99.1267 5.09542 99.8702 5.49007 100.448 5.98334L99.2431 8.73179C98.0168 7.87205 96.7624 7.44214 95.4798 7.44214C94.2677 7.44214 93.341 7.8227 92.6997 8.58382C92.0584 9.34486 91.7377 10.4795 91.7377 11.9876C91.7377 13.4957 92.0584 14.6338 92.6997 15.4019C93.341 16.1701 94.2677 16.5542 95.4798 16.5542C96.7624 16.5542 98.0168 16.1243 99.2431 15.2645L100.448 18.013C99.8702 18.5063 99.1267 18.9009 98.2176 19.1969C97.3085 19.4929 96.3678 19.6409 95.3953 19.6409Z" fill="#4B5563"/>
<path d="M115.904 19.4518H111.633L109.054 14.6949C108.73 14.1452 108.215 13.8703 107.51 13.8703H106.327V19.4518H102.5V4.54688H109.604C111.408 4.54688 112.764 4.93805 113.673 5.72027C114.582 6.50249 115.037 7.63355 115.037 9.11351C115.037 10.241 114.727 11.1959 114.107 11.9782C113.487 12.7604 112.613 13.2854 111.485 13.5532C112.345 13.7364 113.029 14.2932 113.536 15.2234L115.904 19.4518ZM108.99 10.9528C109.85 10.9528 110.467 10.8189 110.84 10.5511C111.214 10.2833 111.401 9.84638 111.401 9.24032C111.401 8.62017 111.214 8.1727 110.84 7.89785C110.467 7.623 109.85 7.48557 108.99 7.48557H106.284V10.9528H108.99Z" fill="#4B5563"/>
<path d="M129.498 4.54688H132.5V19.4518H129.117V11.6293L126.242 16.9782H123.747L120.893 11.7562L120.872 19.4518H117.489V4.54688H120.555L125.037 13.0247L129.498 4.54688Z" fill="#4B5563"/>
</svg>

<svg width="133" height="24" fill="none" xmlns="http://www.w3.org/2000/svg"><path fill-rule="evenodd" clip-rule="evenodd" d="M24.5 2.4c0-1.325-1.075-2.4-2.4-2.4H2.9A2.401 2.401 0 0 0 .5 2.4v19.2c0 1.325 1.075 2.4 2.4 2.4h19.2c1.325 0 2.4-1.075 2.4-2.4V2.4Z" fill="#4B5563"/><path fill-rule="evenodd" clip-rule="evenodd" d="M20.578 5.691 6.096 9.571a2.254 2.254 0 0 0-1.671 2.178v1.52L17.439 9.78a4.234 4.234 0 0 0 3.139-4.09ZM14.378 12.395l-8.282 2.219a2.254 2.254 0 0 0-1.671 2.177v1.52l6.814-1.826a4.234 4.234 0 0 0 3.139-4.09Z" fill="#fff"/><path d="M39.434 4.525c.282-.029.497.01.645.116.148.105.222.271.222.497 0 .437-.24.676-.719.718l-.613.043c-.803.056-1.402.3-1.797.73-.394.429-.627 1.074-.697 1.934l-.043.592h2.305c.225 0 .398.06.518.18.12.119.18.278.18.475 0 .211-.064.38-.19.507-.128.127-.31.19-.55.19h-2.368l-.656 8.225c-.014.267-.105.472-.275.613a.926.926 0 0 1-.613.211c-.24 0-.44-.07-.602-.211-.162-.141-.236-.346-.222-.613l.655-8.224h-1.416c-.226 0-.398-.06-.518-.18a.643.643 0 0 1-.18-.476c0-.211.063-.38.19-.507s.317-.19.571-.19h1.459l.021-.381c.099-1.367.5-2.393 1.205-3.076.705-.684 1.727-1.068 3.066-1.152l.422-.021ZM41.528 19.555a.846.846 0 0 1-.592-.211c-.155-.141-.225-.352-.211-.634L41.803 5.22c.014-.267.113-.468.296-.602.183-.134.395-.201.634-.201.24 0 .434.067.582.2.148.135.215.336.2.603L42.438 18.71c-.014.282-.109.493-.285.634a.968.968 0 0 1-.624.211ZM53.81 8.941c.254 0 .455.074.603.222.148.148.208.356.18.624l-.719 8.985a.753.753 0 0 1-.285.571.969.969 0 0 1-.624.212c-.24 0-.43-.067-.57-.201-.142-.134-.205-.321-.191-.56l.084-1.015a3.652 3.652 0 0 1-1.416 1.342c-.592.317-1.255.476-1.987.476-1.142 0-2.009-.3-2.6-.899-.593-.599-.889-1.476-.889-2.632 0-.254.007-.444.021-.57l.444-5.709c.029-.268.13-.476.307-.624a.94.94 0 0 1 .624-.222c.253 0 .454.074.602.222.148.148.208.356.18.624l-.444 5.603a3.415 3.415 0 0 0-.021.444c0 1.55.74 2.325 2.22 2.325.916 0 1.649-.282 2.198-.845.55-.564.86-1.347.93-2.347l.423-5.18c.028-.268.13-.476.307-.624a.94.94 0 0 1 .624-.222ZM58.314 14.568v.085c0 1.127.278 2.001.835 2.621.557.62 1.364.93 2.42.93 1.114 0 2.094-.31 2.94-.93a.734.734 0 0 1 .422-.148c.17 0 .307.064.413.19a.672.672 0 0 1 .158.445c0 .253-.113.486-.338.697-.38.339-.913.614-1.596.825a7.01 7.01 0 0 1-2.083.317c-1.494 0-2.681-.451-3.562-1.353-.881-.902-1.322-2.114-1.322-3.636 0-1.128.208-2.122.624-2.981.416-.86 1.008-1.53 1.776-2.009.768-.48 1.66-.719 2.675-.719 1.38 0 2.438.413 3.17 1.237.734.825 1.1 2.02 1.1 3.584 0 .267-.07.475-.211.623-.141.148-.332.222-.571.222h-6.85Zm3.425-4.334c-.944 0-1.698.279-2.262.835-.564.557-.923 1.357-1.078 2.4h6.004c.042-1.057-.173-1.86-.645-2.41-.472-.55-1.145-.825-2.02-.825ZM73.81 8.902c1.157 0 2.037.303 2.644.91.606.606.909 1.486.909 2.642 0 .254-.007.444-.022.57l-.444 5.688c-.028.282-.126.493-.295.634a.927.927 0 0 1-.614.212c-.267 0-.475-.07-.623-.212-.148-.14-.208-.352-.18-.634l.444-5.581c.014-.099.021-.247.021-.444 0-1.565-.754-2.347-2.262-2.347-.958 0-1.72.285-2.283.856-.564.571-.888 1.357-.973 2.357l-.423 5.159c-.014.282-.105.493-.275.634a.957.957 0 0 1-.634.212c-.253 0-.454-.07-.602-.212-.148-.14-.215-.352-.201-.634l.74-8.964c.014-.254.11-.451.285-.592a.968.968 0 0 1 .624-.211c.24 0 .43.07.57.211.142.141.205.331.191.57l-.084 1.016a3.69 3.69 0 0 1 1.437-1.353c.606-.325 1.29-.487 2.05-.487ZM82.542 15.73c-.014.099-.021.24-.021.423 0 .676.155 1.19.465 1.543.31.352.747.529 1.31.529.184 0 .36-.01.53-.032a3.35 3.35 0 0 1 .38-.032.43.43 0 0 1 .349.17c.091.112.137.267.137.465 0 .296-.123.503-.37.623-.246.12-.68.18-1.3.18-1.015 0-1.804-.289-2.368-.867-.564-.578-.846-1.395-.846-2.452 0-.198.007-.353.021-.465l.402-5.307h-1.395c-.226 0-.398-.06-.518-.18a.643.643 0 0 1-.18-.475c0-.226.067-.399.201-.518.134-.12.32-.18.56-.18h1.438l.19-2.41a.9.9 0 0 1 .286-.582.889.889 0 0 1 .623-.222c.268 0 .476.078.624.233.148.155.208.36.18.613l-.19 2.368h2.325c.211 0 .38.06.507.18s.19.278.19.475c0 .226-.063.399-.19.518-.127.12-.31.18-.55.18h-2.388l-.402 5.222ZM95.395 19.64c-1.55 0-2.9-.316-4.048-.95a6.47 6.47 0 0 1-2.643-2.686c-.613-1.155-.92-2.494-.92-4.016 0-1.523.307-2.858.92-4.007a6.485 6.485 0 0 1 2.643-2.674c1.148-.634 2.498-.952 4.048-.952.973 0 1.913.148 2.823.444.909.296 1.652.691 2.23 1.184l-1.205 2.749c-1.226-.86-2.48-1.29-3.763-1.29-1.212 0-2.139.38-2.78 1.142-.642.76-.962 1.896-.962 3.404s.32 2.646.962 3.414c.641.768 1.568 1.152 2.78 1.152 1.282 0 2.537-.43 3.763-1.29l1.205 2.749c-.578.493-1.321.888-2.23 1.184-.91.296-1.85.444-2.823.444ZM115.904 19.452h-4.271l-2.579-4.757c-.324-.55-.839-.825-1.544-.825h-1.183v5.582H102.5V4.547h7.104c1.804 0 3.16.391 4.069 1.173.909.782 1.364 1.914 1.364 3.394 0 1.127-.31 2.082-.93 2.864-.62.782-1.494 1.307-2.622 1.575.86.183 1.544.74 2.051 1.67l2.368 4.229Zm-6.914-8.5c.86 0 1.477-.133 1.85-.4.374-.269.561-.706.561-1.312 0-.62-.187-1.067-.561-1.342-.373-.275-.99-.412-1.85-.412h-2.706v3.467h2.706ZM129.498 4.547h3.002v14.905h-3.383v-7.823l-2.875 5.35h-2.495l-2.854-5.223-.021 7.696h-3.383V4.547h3.066l4.482 8.478 4.461-8.478Z" fill="#4B5563"/></svg>
